dist/svg/static/projects-small.svg

<svg xmlns="http://www.w3.org/2000/svg" width="24" height="24" viewBox="0 0 24 24"><g stroke="currentColor"><path d="M2.5 9.5h18a1 1 0 0 1 1 1v13h-18a1 1 0 0 1-1-1v-13zM15 19.5h4m-9 0h4m-9 0h4m6-3h4m-9 0h4m-9 0h4m6-3h4m-9 0h4m-9 0h4" fill="none"/><path d="M18.558 9.5l-5.202-6.265m-3.718-.019L4.358 9.5" fill="currentColor"/><circle cx="11.5" cy="2.5" r="2" fill="none"/></g></svg>

<?xml version="1.0" encoding="UTF-8" standalone="no"?>
<svg width="24px" height="24px" viewBox="0 0 24 24" version="1.1" xmlns="http://www.w3.org/2000/svg" xmlns:xlink="http://www.w3.org/1999/xlink">
    <!-- Generator: sketchtool 46.2 (44496) - http://www.bohemiancoding.com/sketch -->
    <title>projects-small</title>
    <desc>Created with sketchtool.</desc>
    <defs></defs>
    <g id="icons-published" stroke="none" stroke-width="1" fill="none" fill-rule="evenodd">
        <g id="briefing" transform="translate(-932.000000, -1434.000000)"></g>
        <g id="projects-small" stroke="#000000">
            <path d="M2.5,9.5 L20.5,9.5 C21.1,9.5 21.5,9.9 21.5,10.5 L21.5,23.5 L3.5,23.5 C2.9,23.5 2.5,23.1 2.5,22.5 L2.5,9.5 Z M15,19.5 L19,19.5 L15,19.5 Z M10,19.5 L14,19.5 L10,19.5 Z M5,19.5 L9,19.5 L5,19.5 Z M15,16.5 L19,16.5 L15,16.5 Z M10,16.5 L14,16.5 L10,16.5 Z M5,16.5 L9,16.5 L5,16.5 Z M15,13.5 L19,13.5 L15,13.5 Z M10,13.5 L14,13.5 L10,13.5 Z M5,13.5 L9,13.5 L5,13.5 Z" id="Shape"></path>
            <path d="M18.6,9.5 L13.4,3.2 M9.6,3.2 L4.4,9.5" id="Shape" fill="#000000" fill-rule="nonzero"></path>
            <circle id="Oval" cx="11.5" cy="2.5" r="2"></circle>
        </g>
    </g>
</svg>
